X: 1
T: Jimmy Batty's
M: 4/4
L: 1/8
R: reel
K: Dmaj
|: dFFB AFEF | ~D2DF ADFA | BEEE Bdef | gefd edBc | 
dFFB AFEF | ~D3F ADFA | BEEE (3Bcd ef |1 gdec d2fe :|2 gdec ~d4 ||
|: ~A3B AF F2 | ABde ~f2ed | Beed ~e3f | ~g2fd ed (3Bcd |
~A2 AB AF ~F2 | ABdB ~f2ed | Beed BcdB |1 AFEF D2BD :|2 AFEF DFAB ||
